X: 40684
T: Toria's 50th
R: reel
M: 4/4
K: Emajor
|:BeeB effe|Bffa fgge|ceef fgfe|ecfe fgge|
Aefg cAef|gag/f/e effe|AAeA AeAc|efBB defe:|
|:b2ag aba(g|g)eeg gffe|Aefg cAef|ggff ed2B|
FAce fAce|fgec eccA|FAce fAce|1 BeBf fgga:|2 fgeA fgec||

